src/assets/images/logos/marriott.svg

<?xml version="1.0" encoding="utf-8"?>
<svg width="140" height="29" viewBox="0 0 140 29" fill="none" xmlns="http://www.w3.org/2000/svg">
<path d="M134.243 24.0078C132.814 23.2522 132.592 21.1171 132.624 15.9284L132.656 7.97402L129.945 7.96924L130.554 6.49542H132.656V2.72882L137.693 0.845215L137.691 6.37018L140 6.37391L139.392 8.006L137.693 8.0033L137.684 21.7703C137.794 22.879 138.163 23.5316 138.689 24.0078H134.243ZM7.61818 10.4718C8.13041 11.8898 9.28965 13.354 8.4647 14.9967C8.06384 16.6629 6.50517 18.0137 4.8565 18.2839C3.1425 18.4422 1.49363 18.1498 0.224052 17.0911C-0.689863 12.2725 1.2483 7.81411 5.01286 5.15766L7.61818 10.4718Z" fill="#1F3D56"/>
<path d="M14.2668 25.1514C13.4086 28.0667 4.89074 26.1525 2.2168 21.3688C5.72534 21.763 9.67955 18.622 9.74591 15.043L14.2668 25.1514ZM17.753 24.7741C18.1428 24.5997 18.9275 24.2051 19.122 23.362L9.95699 3.26686C9.34408 3.18732 8.89966 3.13145 8.11971 3.69347L17.753 24.7741ZM21.8731 20.4121C25.7706 14.4456 22.486 4.652 14.0879 3.27766L21.8731 20.4121ZM94.8175 7.11072C95.7384 6.32833 97.3635 6.30859 98.4153 6.81309C98.857 7.03595 99.2801 7.33545 99.5599 7.72654L97.5283 10.9155C97.2708 10.7107 97.0861 10.6173 96.7545 10.4497C95.7479 10.0116 94.6869 10.2679 94.0791 10.8223V20.1294C94.0659 21.7378 94.3421 23.2062 95.1683 23.9706H90.5564C89.596 23.2249 89.3566 22.0307 89.2642 20.9866L89.2264 8.61258C89.2687 7.61044 89.0152 7.16763 88.617 6.60809L93.3963 6.62596C93.7828 6.90593 93.8019 7.39174 94.0043 7.76497L94.8175 7.11072ZM100.647 10.1697C100.61 8.99414 100.869 7.58699 100.108 6.57094H104.54C104.835 6.79463 105.002 7.16765 105.093 7.52178C105.333 7.83872 105.315 8.28631 105.426 8.65954L105.463 21.8444C105.647 22.6282 105.942 23.4206 106.515 24.0354L101.772 24.0456C100.222 22.5304 100.73 20.0358 100.61 17.4613L100.647 10.1697ZM112.27 19.6255C112.491 20.4461 112.917 21.4533 113.894 21.5654C114.466 21.5833 114.89 21.0985 115.22 20.6887C116.255 18.6362 116.107 16.3979 116.107 14.0682C115.776 12.333 116.181 9.9655 114.336 8.90147C113.69 8.65888 113.192 9.10647 112.787 9.51625C112.066 10.6166 111.984 11.8755 111.938 13.2756C111.699 15.5125 111.957 17.3685 112.27 19.6255ZM107.659 10.3005C108.138 8.95776 109.632 8.28544 110.719 7.55954C112.381 6.9435 114.207 5.41464 116.069 6.66374C117.62 7.68955 118.985 8.84518 119.963 10.4316C120.204 11.0464 120.314 11.7357 120.48 12.3889C120.48 13.2658 120.664 13.9184 120.646 14.7947C120.702 15.7468 120.702 16.6048 120.646 17.5369C120.592 19.1208 119.853 20.539 118.617 21.6383C116.772 23.2986 114.448 25.1833 111.938 23.8964C109.687 22.8322 107.029 20.7261 107.197 17.8354C107.105 15.7833 107.011 14.0117 107.289 12.0157C107.399 11.4375 107.343 10.8036 107.659 10.3005ZM123.93 24.0078C122.5 23.2522 122.278 21.1171 122.311 15.9284L122.343 7.97402L119.631 7.96924L120.241 6.49542H122.343V2.72882L127.381 0.845215L127.377 6.37018L129.687 6.37391L129.077 8.006L127.381 8.0033L127.372 21.7703C127.482 22.879 127.85 23.5316 128.377 24.0078H123.93ZM77.8802 8.61269C77.8494 7.60805 77.6694 7.16773 77.271 6.60799L82.0489 6.62606C82.4366 6.90583 82.4545 7.39163 82.6585 7.76486L83.4713 7.11083C84.3924 6.32822 86.0165 6.30849 87.0691 6.81299C87.511 7.03585 87.9353 7.33555 88.2127 7.72665L86.1835 10.9156C85.925 10.7108 85.7391 10.6172 85.4083 10.4496C84.4017 10.0115 83.3411 10.268 82.7329 10.8222V20.1293C82.72 21.7377 82.9961 23.2063 83.8223 23.9705H79.2079C78.2488 23.225 77.9763 22.1128 77.9184 20.9865L77.8802 8.61269ZM41.737 13.508L39.992 17.1188C38.8056 19.2504 37.1414 21.8624 34.5905 22.5114C33.602 22.861 32.7296 22.5461 31.7744 22.4782L28.6948 27.5712C28.9258 27.8217 29.2518 28.0314 29.5683 28.1544C34.9854 30.244 37.1674 27.9961 42.5016 15.8122L47.5415 26.665H54.252L51.0808 19.3407L52.8768 15.5546L57.8327 26.4978L64.2547 26.5395L53.0155 1.57201L47.8392 4.17342L51.8965 13.4893L50.1184 17.1522L42.683 0.926902L37.2293 3.7356L41.737 13.508ZM70.8321 14.3941C70.7953 13.6942 70.2977 13.6198 69.9467 13.6198C68.8031 13.7879 67.8191 14.7559 67.2716 15.7462C66.783 16.6317 66.6679 17.3781 66.6252 18.1522C66.6219 18.9867 66.5709 19.6063 66.903 20.2404C67.0867 20.6516 67.4931 20.8379 67.8808 20.9495C68.618 21.098 69.3008 20.8932 69.8734 20.5017C71.2198 19.7376 70.9792 18.2073 70.9994 16.8468L70.8321 14.3941ZM62.364 17.909C62.492 16.101 63.4713 14.4024 65.1306 13.4894C66.7737 12.4638 68.6928 12.0528 70.3891 11.1582C70.684 10.9156 71.054 10.6172 71.0717 10.2261C71.0908 9.74129 70.8512 9.36806 70.4257 9.20045C67.844 8.64091 65.7032 10.2826 63.822 11.9043C64.0616 10.7108 64.2463 9.40524 64.8002 8.28616C65.0751 7.98791 65.2422 7.57688 65.6108 7.3534C67.4374 6.43994 69.7251 6.17928 71.7734 6.32779C73.452 6.43994 75.0021 7.65165 75.5747 9.20045C75.8687 9.92781 75.8496 10.7484 75.9065 11.4932L75.9256 21.6025C75.9433 22.4783 76.3489 23.2992 76.8644 24.0084H72.0863C71.5151 23.4861 71.2328 22.8331 71.0717 22.0125C69.7359 23.2063 66.943 24.9778 65.279 23.8037C63.5543 23.0192 61.9763 20.3897 62.364 17.909Z" fill="#1F3D56"/>
</svg>

<svg width="140" height="29" fill="none" xmlns="http://www.w3.org/2000/svg"><path d="M134.243 24.008c-1.429-.756-1.651-2.89-1.619-8.08l.032-7.954-2.711-.005.609-1.474h2.102V2.73l5.037-1.884-.002 5.525 2.309.004-.608 1.632-1.699-.003-.009 13.767c.11 1.109.479 1.762 1.005 2.238h-4.446zM7.618 10.472c.512 1.418 1.672 2.882.847 4.525-.401 1.666-1.96 3.017-3.609 3.287-1.713.158-3.362-.134-4.632-1.193-.914-4.819 1.024-9.277 4.789-11.933l2.605 5.314z" fill="#1F3D56"/><path d="M14.267 25.151c-.858 2.916-9.376 1.002-12.05-3.782 3.508.394 7.463-2.747 7.529-6.326l4.52 10.108zm3.486-.377c.39-.174 1.174-.569 1.369-1.412L9.957 3.267c-.613-.08-1.057-.136-1.837.426l9.633 21.081zm4.12-4.362c3.898-5.966.613-15.76-7.785-17.134l7.785 17.134zM94.818 7.111c.92-.783 2.546-.802 3.597-.298.442.223.865.522 1.145.914l-2.032 3.188c-.257-.204-.442-.298-.774-.465-1.006-.438-2.067-.182-2.675.372v9.307c-.013 1.609.263 3.077 1.09 3.842h-4.613c-.96-.746-1.2-1.94-1.292-2.984l-.038-12.374c.043-1.003-.21-1.445-.609-2.005l4.78.018c.386.28.405.766.607 1.139l.813-.654zm5.829 3.059c-.037-1.176.222-2.583-.539-3.6h4.432c.295.225.462.598.553.952.24.317.222.764.333 1.138l.037 13.184c.184.784.479 1.577 1.052 2.191l-4.743.01c-1.55-1.515-1.042-4.01-1.162-6.584l.037-7.291zm11.623 9.455c.221.821.647 1.828 1.624 1.94.572.018.996-.466 1.326-.876 1.035-2.053.887-4.291.887-6.62-.331-1.736.074-4.104-1.771-5.168-.646-.242-1.144.205-1.549.615-.721 1.1-.803 2.36-.849 3.76-.239 2.236.019 4.093.332 6.35zm-4.611-9.325c.479-1.342 1.973-2.015 3.06-2.74 1.662-.616 3.488-2.145 5.35-.896 1.551 1.026 2.916 2.181 3.894 3.768.241.614.351 1.304.517 1.957 0 .877.184 1.53.166 2.406a22.4 22.4 0 010 2.742c-.054 1.584-.793 3.002-2.029 4.101-1.845 1.66-4.169 3.545-6.679 2.258-2.251-1.064-4.909-3.17-4.741-6.06-.092-2.053-.186-3.824.092-5.82.11-.579.054-1.212.37-1.716zm16.271 13.708c-1.43-.756-1.652-2.89-1.619-8.08l.032-7.954-2.712-.005.61-1.474h2.102V2.73l5.038-1.884-.004 5.525 2.31.004-.61 1.632-1.696-.003-.009 13.767c.11 1.109.478 1.762 1.005 2.238h-4.447zM77.88 8.613c-.03-1.005-.21-1.445-.609-2.005l4.778.018c.388.28.405.766.61 1.139l.812-.654c.921-.783 2.545-.803 3.598-.298.442.223.866.523 1.144.914l-2.03 3.189c-.258-.205-.444-.299-.775-.466-1.006-.438-2.067-.182-2.675.372v9.307c-.013 1.609.263 3.077 1.09 3.841h-4.615c-.96-.745-1.232-1.857-1.29-2.983L77.88 8.612zm-36.143 4.895l-1.745 3.61c-1.186 2.132-2.85 4.744-5.401 5.393-.989.35-1.861.035-2.817-.033l-3.08 5.093c.232.25.558.46.874.583 5.417 2.09 7.6-.158 12.934-12.342l5.04 10.853h6.71l-3.171-7.324 1.796-3.786 4.956 10.943 6.422.041-11.24-24.967-5.176 2.601 4.058 9.316-1.779 3.663L42.683.927l-5.454 2.809 4.508 9.772zm29.095.886c-.037-.7-.534-.774-.885-.774-1.144.168-2.128 1.136-2.675 2.126-.489.886-.604 1.632-.647 2.406-.003.835-.054 1.454.278 2.088.184.412.59.598.978.71.737.148 1.42-.057 1.992-.448 1.347-.764 1.106-2.295 1.126-3.655l-.167-2.453zm-8.468 3.515c.128-1.808 1.107-3.507 2.767-4.42 1.643-1.025 3.562-1.436 5.258-2.33.295-.243.665-.542.683-.933.019-.485-.22-.858-.646-1.026-2.582-.56-4.723 1.083-6.604 2.704.24-1.193.424-2.499.978-3.618.275-.298.442-.71.81-.933 1.827-.913 4.115-1.174 6.163-1.025 1.679.112 3.23 1.324 3.802 2.872.294.728.275 1.548.331 2.293l.02 10.11c.017.875.423 1.696.938 2.405h-4.778c-.57-.522-.853-1.175-1.014-1.995-1.336 1.193-4.129 2.965-5.793 1.79-1.725-.784-3.303-3.413-2.915-5.894z" fill="#1F3D56"/></svg>
